src/pos-icons/iobroker.svg

<svg height="24" viewBox="0 0 24 24" width="24" xmlns="http://www.w3.org/2000/svg"><path d="m12 2c-.5 0-1 .04-1.5.11v2.74c.5-.1 1-.15 1.5-.15s1 .05 1.5.15v-2.73c-.5-.08-1-.12-1.5-.12m-2.18.25c-4.42 1-7.71 4.99-7.71 9.75 0 5.5 4.42 10 9.89 10s9.89-4.5 9.89-10c0-4.76-3.29-8.75-7.7-9.75v2.78c2.98.93 5.15 3.7 5.15 6.97 0 4-3.29 7.3-7.34 7.3-4.04 0-7.33-3.3-7.33-7.3 0-3.27 2.17-6.04 5.15-6.97m2.18.42c-.5 0-1 .05-1.5.17v12.65c.5.11 1 .17 1.5.17s1-.05 1.5-.17v-12.65c-.5-.12-1-.17-1.5-.17z"/></svg>

<?xml version="1.0" encoding="UTF-8"?><!DOCTYPE svg PUBLIC "-//W3C//DTD SVG 1.1//EN" "http://www.w3.org/Graphics/SVG/1.1/DTD/svg11.dtd"><svg xmlns="http://www.w3.org/2000/svg" xmlns:xlink="http://www.w3.org/1999/xlink" version="1.1" id="mdi-iobroker" width="24" height="24" viewBox="0 0 24 24"><path d="M12 2C11.5 2 11 2.04 10.5 2.11V4.85C11 4.75 11.5 4.7 12 4.7C12.5 4.7 13 4.75 13.5 4.85V2.12C13 2.04 12.5 2 12 2M9.82 2.25C5.4 3.25 2.11 7.24 2.11 12C2.11 17.5 6.53 22 12 22C17.47 22 21.89 17.5 21.89 12C21.89 7.24 18.6 3.25 14.19 2.25V5.03C17.17 5.96 19.34 8.73 19.34 12C19.34 16 16.05 19.3 12 19.3C7.96 19.3 4.67 16 4.67 12C4.67 8.73 6.84 5.96 9.82 5.03M12 5.45C11.5 5.45 11 5.5 10.5 5.62V18.27C11 18.38 11.5 18.44 12 18.44C12.5 18.44 13 18.39 13.5 18.27V5.62C13 5.5 12.5 5.45 12 5.45Z" /></svg>
